X:53
T:Mouvante
R:dance
M:2/4
L:1/8
K:Am
ee fe | dd c>e | ee de | dc B2 |
AB/c/ BA | GA B>e | ee dc | B2 A2 :| 
AB/c/ BA | GA Be | ee dc | B2 A2 :| 

